Origami/32x32/apps/google-agenda.svg

<svg width="32" height="32" version="1" xmlns="http://www.w3.org/2000/svg">
 <path d="M 2,9 V 29.599609 C 2,30.375209 2.624791,31 3.400391,31 H 28.599609 C 29.375209,31 30,30.375209 30,29.599609 V 9 Z" style="opacity:.2"/>
 <path d="M 2,8 V 28.599609 C 2,29.375209 2.624791,30 3.400391,30 H 28.599609 C 29.375209,30 30,29.375209 30,28.599609 V 8 Z" style="fill:#4384f1"/>
 <path d="m30 9v-4.6c0-0.7756-0.6244-1.4-1.4-1.4h-25.2c-0.7756 0-1.4 0.6244-1.4 1.4v4.6z" style="opacity:.2"/>
 <path d="m30 8v-4.6c0-0.7756-0.6244-1.4-1.4-1.4h-25.2c-0.7756 0-1.4 0.6244-1.4 1.4v4.6z" style="fill:#cccccc"/>
 <path d="m8.5566406 12.919524c-0.6789762 0.020225-1.2432797 0.080078-1.5566406 0.080078v2c0.9766782 0 2.3501312-0.178561 3.398438 0.03906 0.524151 0.108815 0.91433 0.295101 1.164062 0.558594 0.249732 0.263496 0.4375 0.632665 0.4375 1.402344 0 0.813063-0.172097 1.243281-0.357422 1.492188-0.185324 0.248906-0.419644 0.385009-0.791016 0.480468-0.506183 0.130113-1.2476962 0.05457-1.9433589 0.01953-0.2774198-0.01152-0.6525464-0.07205-0.8515625-0.0625-0.1183278 0.0057-0.2190373 0.01299-0.3164062 0.02539-0.048685 0.0062-0.095896 0.01445-0.15625 0.02734-0.060355 0.0129-0.100482-8e-3 -0.3261719 0.121094-0.028211 0.01614-0.05996 0.03673-0.097656 0.06445s-0.1304035 0.112807-0.1308593 0.113281-0.1559926 0.212423-0.15625 0.212891-0.1171302 0.358914-0.1171875 0.359375 0.040871 0.429234 0.041016 0.429687c1.446e-4 4.54e-4 0.1656673 0.312055 0.1660156 0.3125s0.1192548 0.129996 0.1699219 0.169922c0.050667 0.03993 0.093307 0.06878 0.1308594 0.08984 0.30042 0.168499 0.332099 0.118222 0.3984375 0.126953 0.1326762 0.01747 0.2158058 0.01758 0.3378906 0.01758 0.1545833 0 0.592773-0.04184 0.8261719-0.02344 0.2976003 0.01328 0.5328134-1.52e-4 0.890625 0.06641 0.6284834 0.116902 1.2620074 0.345956 1.6640624 0.658203 0.402054 0.312258 0.61914 0.624901 0.61914 1.29884 0 0.726295-0.194809 1.048466-0.523438 1.333984-0.328628 0.285519-0.878039 0.504646-1.5468745 0.621094-1.3376714 0.232896-2.9530093 0.044922-3.9296875 0.044922v2c0.6267218 0 2.5119584 0.232466 4.273438-0.07422 0.880739-0.153342 1.780331-0.444892 2.513671-1.082031 0.733341-0.637137 1.212891-1.649204 1.212891-2.843749 0-1.246901-0.606602-2.268496-1.392578-2.878906-0.0068-0.0053-0.01468-0.0045-0.02148-0.0098 0.215783-0.166096 0.485667-0.189475 0.660156-0.423828 0.501636-0.673683 0.753902-1.579689 0.753902-2.687466 0-1.151161-0.361591-2.11818-0.986328-2.777344s-1.433563-0.981601-2.208984-1.142578c-0.775423-0.160976-1.5690712-0.180381-2.2480474-0.160156zm12.433593 0.08008-2.990234 1v2l3-1 0.0098 10h-3.0098v2h8v-2h-3v-12z" style="opacity:.2"/>
 <path d="m8.5566406 11.919923c-0.6789762 0.020225-1.2432797 0.080078-1.5566406 0.080078v2c0.9766782 0 2.3501312-0.178561 3.398438 0.03906 0.524151 0.108815 0.91433 0.295101 1.164062 0.558594 0.249732 0.263496 0.4375 0.632665 0.4375 1.402344 0 0.813063-0.172097 1.243281-0.357422 1.492188-0.185324 0.248906-0.419644 0.385009-0.791016 0.480468-0.506183 0.130113-1.2476962 0.05457-1.9433589 0.01953-0.2774198-0.01152-0.6525464-0.07205-0.8515625-0.0625-0.1183278 0.0057-0.2190373 0.01299-0.3164062 0.02539-0.048685 0.0062-0.095896 0.01445-0.15625 0.02734-0.060355 0.0129-0.100482-8e-3 -0.3261719 0.121094-0.028211 0.01614-0.05996 0.03673-0.097656 0.06445s-0.1304035 0.112807-0.1308593 0.113281-0.1559926 0.212423-0.15625 0.212891-0.1171302 0.358914-0.1171875 0.359375 0.040871 0.429234 0.041016 0.429687c1.446e-4 4.54e-4 0.1656673 0.312055 0.1660156 0.3125s0.1192548 0.129996 0.1699219 0.169922c0.050667 0.03993 0.093307 0.06878 0.1308594 0.08984 0.30042 0.168499 0.332099 0.118222 0.3984375 0.126953 0.1326762 0.01748 0.2158058 0.01758 0.3378906 0.01758 0.1545833 0 0.592773-0.04184 0.8261719-0.02344 0.2976003 0.01328 0.5328134-1.52e-4 0.890625 0.06641 0.6284831 0.116902 1.2620071 0.345956 1.6640621 0.658203 0.4020543 0.312258 0.6191403 0.624901 0.6191403 1.29884 0 0.726295-0.194809 1.048466-0.523438 1.333984-0.328628 0.285519-0.878039 0.504646-1.5468745 0.621094-1.3376714 0.232896-2.9530093 0.044922-3.9296875 0.044922v2c0.6267218 0 2.5119584 0.232466 4.273438-0.07422 0.880739-0.153342 1.780331-0.444892 2.513671-1.082031 0.733341-0.637137 1.212891-1.649204 1.212891-2.843749 0-1.246901-0.606602-2.268496-1.392578-2.878906-0.0068-0.0053-0.01468-0.0045-0.02148-0.0098 0.215783-0.166096 0.485667-0.189475 0.660156-0.423828 0.501636-0.673683 0.753902-1.579689 0.753902-2.687466 0-1.151161-0.361591-2.11818-0.986328-2.777344s-1.433563-0.981601-2.208984-1.142578c-0.775423-0.160976-1.5690712-0.180381-2.2480474-0.160156zm12.433593 0.08008-2.990234 1v2l3-1 0.0098 10h-3.0098v2h8v-2h-3v-12z" style="fill:#ffffff"/>
 <path d="M 3.4003906 2 C 2.6247906 2 2 2.6247906 2 3.4003906 L 2 4.4003906 C 2 3.6247906 2.6247906 3 3.4003906 3 L 28.599609 3 C 29.375209 3 30 3.6247906 30 4.4003906 L 30 3.4003906 C 30 2.6247906 29.375209 2 28.599609 2 L 3.4003906 2 z" style="fill:#ffffff;opacity:.2"/>
</svg>

<svg xmlns="http://www.w3.org/2000/svg" width="32" height="32" version="1">
 <path style="opacity:0.2" d="M 2,9 V 29.599609 C 2,30.375209 2.624791,31 3.400391,31 H 28.599609 C 29.375209,31 30,30.375209 30,29.599609 V 9 Z"/>
 <path style="fill:#4384f1" d="M 2,8 V 28.599609 C 2,29.375209 2.624791,30 3.400391,30 H 28.599609 C 29.375209,30 30,29.375209 30,28.599609 V 8 Z"/>
 <path style="opacity:0.2" d="M 30,9 V 4.4 C 30,3.6244 29.3756,3 28.6,3 H 3.4 C 2.6244,3 2,3.6244 2,4.4 V 9 Z"/>
 <path style="fill:#cccccc" d="M 30,8 V 3.4 C 30,2.6244 29.3756,2 28.6,2 H 3.4 C 2.6244,2 2,2.6244 2,3.4 V 8 Z"/>
 <path style="opacity:0.2" d="M 8.5566406,12.919524 C 7.8776644,12.939749 7.3133609,12.999602 7,12.999602 v 2 c 0.9766782,0 2.3501312,-0.178561 3.398438,0.03906 0.524151,0.108815 0.91433,0.295101 1.164062,0.558594 C 11.812232,15.860752 12,16.229921 12,16.9996 c 0,0.813063 -0.172097,1.243281 -0.357422,1.492188 -0.185324,0.248906 -0.419644,0.385009 -0.791016,0.480468 -0.506183,0.130113 -1.2476962,0.05457 -1.9433589,0.01953 -0.2774198,-0.01152 -0.6525464,-0.07205 -0.8515625,-0.0625 -0.1183278,0.0057 -0.2190373,0.01299 -0.3164062,0.02539 -0.048685,0.0062 -0.095896,0.01445 -0.15625,0.02734 -0.060355,0.0129 -0.100482,-0.008 -0.3261719,0.121094 -0.028211,0.01614 -0.05996,0.03673 -0.097656,0.06445 -0.037696,0.02772 -0.1304035,0.112807 -0.1308593,0.113281 -4.558e-4,4.74e-4 -0.1559926,0.212423 -0.15625,0.212891 -2.574e-4,4.68e-4 -0.1171302,0.358914 -0.1171875,0.359375 -5.73e-5,4.61e-4 0.040871,0.429234 0.041016,0.429687 1.446e-4,4.54e-4 0.1656673,0.312055 0.1660156,0.3125 3.483e-4,4.45e-4 0.1192548,0.129996 0.1699219,0.169922 0.050667,0.03993 0.093307,0.06878 0.1308594,0.08984 0.30042,0.168499 0.332099,0.118222 0.3984375,0.126953 0.1326762,0.01747 0.2158058,0.01758 0.3378906,0.01758 0.1545833,0 0.592773,-0.04184 0.8261719,-0.02344 0.2976003,0.01328 0.5328134,-1.52e-4 0.890625,0.06641 0.6284834,0.116902 1.2620074,0.345956 1.6640624,0.658203 C 11.782914,22.01302 12,22.325663 12,22.999602 c 0,0.726295 -0.194809,1.048466 -0.523438,1.333984 -0.328628,0.285519 -0.878039,0.504646 -1.5468745,0.621094 C 8.5920161,25.187576 6.9766782,24.999602 6,24.999602 v 2 c 0.6267218,0 2.5119584,0.232466 4.273438,-0.07422 0.880739,-0.153342 1.780331,-0.444892 2.513671,-1.082031 C 13.52045,25.206214 14,24.194147 14,22.999602 c 0,-1.246901 -0.606602,-2.268496 -1.392578,-2.878906 -0.0068,-0.0053 -0.01468,-0.0045 -0.02148,-0.0098 0.215783,-0.166096 0.485667,-0.189475 0.660156,-0.423828 C 13.747734,19.013385 14,18.107379 14,16.999602 14,15.848441 13.638409,14.881422 13.013672,14.222258 12.388935,13.563094 11.580109,13.240657 10.804688,13.07968 10.029265,12.918704 9.2356168,12.899299 8.5566406,12.919524 Z m 12.4335934,0.08008 -2.990234,1 v 2 l 3,-1 0.0098,10 H 18 v 2 h 8 v -2 h -3 v -12 z"/>
 <path style="fill:#ffffff" d="M 8.5566406,11.919923 C 7.8776644,11.940148 7.3133609,12.000001 7,12.000001 v 2 c 0.9766782,0 2.3501312,-0.178561 3.398438,0.03906 0.524151,0.108815 0.91433,0.295101 1.164062,0.558594 0.249732,0.263496 0.4375,0.632665 0.4375,1.402344 0,0.813063 -0.172097,1.243281 -0.357422,1.492188 -0.185324,0.248906 -0.419644,0.385009 -0.791016,0.480468 -0.506183,0.130113 -1.2476962,0.05457 -1.9433589,0.01953 -0.2774198,-0.01152 -0.6525464,-0.07205 -0.8515625,-0.0625 -0.1183278,0.0057 -0.2190373,0.01299 -0.3164062,0.02539 -0.048685,0.0062 -0.095896,0.01445 -0.15625,0.02734 -0.060355,0.0129 -0.100482,-0.008 -0.3261719,0.121094 -0.028211,0.01614 -0.05996,0.03673 -0.097656,0.06445 -0.037696,0.02772 -0.1304035,0.112807 -0.1308593,0.113281 -4.558e-4,4.74e-4 -0.1559926,0.212423 -0.15625,0.212891 -2.574e-4,4.68e-4 -0.1171302,0.358914 -0.1171875,0.359375 -5.73e-5,4.61e-4 0.040871,0.429234 0.041016,0.429687 1.446e-4,4.54e-4 0.1656673,0.312055 0.1660156,0.3125 3.483e-4,4.45e-4 0.1192548,0.129996 0.1699219,0.169922 0.050667,0.03993 0.093307,0.06878 0.1308594,0.08984 0.30042,0.168499 0.332099,0.118222 0.3984375,0.126953 0.1326762,0.01748 0.2158058,0.01758 0.3378906,0.01758 0.1545833,0 0.592773,-0.04184 0.8261719,-0.02344 0.2976003,0.01328 0.5328134,-1.52e-4 0.890625,0.06641 0.6284831,0.116902 1.2620071,0.345956 1.6640621,0.658203 C 11.782914,21.013419 12,21.326062 12,22.000001 c 0,0.726295 -0.194809,1.048466 -0.523438,1.333984 -0.328628,0.285519 -0.878039,0.504646 -1.5468745,0.621094 C 8.5920161,24.187975 6.9766782,24.000001 6,24.000001 v 2 c 0.6267218,0 2.5119584,0.232466 4.273438,-0.07422 0.880739,-0.153342 1.780331,-0.444892 2.513671,-1.082031 C 13.52045,24.206613 14,23.194546 14,22.000001 14,20.7531 13.393398,19.731505 12.607422,19.121095 c -0.0068,-0.0053 -0.01468,-0.0045 -0.02148,-0.0098 0.215783,-0.166096 0.485667,-0.189475 0.660156,-0.423828 C 13.747734,18.013784 14,17.107778 14,16.000001 14,14.84884 13.638409,13.881821 13.013672,13.222657 12.388935,12.563493 11.580109,12.241056 10.804688,12.080079 10.029265,11.919103 9.2356168,11.899698 8.5566406,11.919923 Z m 12.4335934,0.08008 -2.990234,1 v 2 l 3,-1 0.0098,10 H 18 v 2 h 8 v -2 h -3 v -12 z"/>
 <path style="fill:#ffffff;opacity:0.2" d="M 3.4003906 2 C 2.6247906 2 2 2.6247906 2 3.4003906 L 2 4.4003906 C 2 3.6247906 2.6247906 3 3.4003906 3 L 28.599609 3 C 29.375209 3 30 3.6247906 30 4.4003906 L 30 3.4003906 C 30 2.6247906 29.375209 2 28.599609 2 L 3.4003906 2 z"/>
</svg>
